X: 424
T:Heart of the Heartland
M:3/4
L:1/8
Q:1/4=132
C:Peter Ostroushko
K:D
fe |: "D"d4 de | "F#m"f3d fa | "G"b6 | "F#m"a4 d'c' |!
"Bm"d'2 a2 fe | "D"d3e f2 |  "G"B6 | "A7"A4 fe | !
"Bm"d4 e2 | "D"f3d fa | "G"b6 | "F#m"a4 d'c' |!
"Bm"d'2 a2 de |  "F#m"f3"G"e dc | "D"d6 | z4 fe :|!
|: "G"d3e fa | "Bm"b3z2a | "Em"b3z2a | b2 d'4 | !
"F#m"z4 c'b |  "Bm"a4 ba | "G"f4 ed | "A7"B6 | !
"Bm"z4 c2 | "D"d4 e2 | "G"f3d fa | "F#m"b6 |!
"Bm"a4 d'c' |  "F#m"d'2 a2 de |"A7" f3e dc | "D"d4 z2 :|!
"D"z4 d'c' | d'2 af de | f3e dc | [d4A4] ||
% Written by ABC2Win  2.2.124 BETA on 9/27/2007

